X: 56
T:Fadwg Fach
M:C
L:1/8
Q:200
S:Mary Richards' (1787-1877) Collection
R:Welsh reel
A:Wales
Z:brian_martin12345@yahoo.com
K:C
G|c2cd cBAG|ABcd cBAG|ABcd efed|cBcd efed|!
edce dcBd|cBAc BAGB|GBBd cedf|egec GBc:||!
d|e2e>f edcB|cdef edcB|cdef gagf|e>def g>agf|!
edce dcBd|cBAc BAGB|GBBd cedf|egec GBc:||
